X:1
T:Title
%%score ( 1 2 3 ) ( 4 5 )
L:1/8
M:4/4
K:F
V:1 treble nm="Choir Aahs, Staff"
V:2 treble 
V:3 treble 
V:4 bass nm="Choir Aahs, Staff-1"
V:5 bass 
V:1
 [CF]2 [C_A]2 [CG]2 [EB]2 | [F_A]2 [F^c]6 | [Fc]2 [GB]2 [F_A]2 GF | [CE]2 [CF]6 | %4
w: By~Samuel~Sebastian~Wesley * * *||||
 [C_A]2 [_EG]2 [DF]2 [DG]2 | [DG]2 [Gc]4 C2- | C2 [C_E]4 [=B,D]2- | [B,D]2 C6 | %8
w: ||||
 C2 [CF]2 [CG]2 [C_A]2 | [B,B]2 [CB]2 [CA]2 [^CB]2 | [^CF]2 [CB]2 [^Fc]2 [=F^c]2 | %11
w: |||
 [Fc]2 [FB]2 [F_A]2 [EG]2 | [Fc]2 [EB]2 _A2 z2 | E2 F6 |] %14
w: |||
V:2
 x8 | x8 | z4 z2 ^C2 | x8 | x8 | x8 | x8 | x8 | x8 | x8 | x8 | x8 | z4 z2 G2- | G2 z2 z4 |] %14
V:3
 x8 | x8 | x8 | x8 | x8 | x8 | x8 | x8 | x8 | x8 | x8 | x8 | z4 F4 | x8 |] %14
V:4
 [F,_A,]2 [F,C]2 [E,C]2 [G,C]2 | [F,C]2 B,6 | [_A,C]2 [E,C]2 [F,C]2 B,A, | [C,G,]2 [F,,F,_A,]6 | %4
 [F,C]2 [G,C]2 [_A,C]2 [G,C]2 | [F,=B,]2 [_E,C]4 [_A,,F,]2- | [A,,F,]2 [G,,G,]4 G,2 | F,2 [C,E,]6 | %8
 E,-[B,,E,] [_A,,F,]2 [C,E,]2 F,2 | [^C,F,]2 F,2 F,2 [B,,F,]2 | B,_A, [^F,B,]2 [_E,=A,]2 [B,,B,]2 | %11
 [A,,C]2 [B,,^C]2 [=B,,D]2 [C,E]2 | [_A,,C]2 C2- [F,,C]2 C2 | B,2 [F,,_A,]6 |] %14
V:5
 x8 | x8 | z4 z2 B,,2 | x8 | x8 | x8 | z4 z2 G,,2- | G,,2 z2 z4 | .C,2 z2 z4 | x8 | x8 | x8 | %12
 z2 G,,2 z2 C,2- | C,2 z2 z4 |] %14

